X:1
T:Title
%%score { 1 | 2 }
L:1/8
M:6/8
K:Db
V:1 treble nm="Grand Piano"
V:2 bass 
V:1
 z3 z2[Q:1/4=100] [DF]/[EG]/ | [FA]>[_F=G][=FA] [Fd]>[Ac][_GB] | [FA][GB][FA] [DF]2 [FA] | %3
 [FA]>[GB][FA] AGF | [CE]3- [CE]2 [DF]/[EG]/ | [FA]>[_F=G][=FA] [Fd]>[Gc][Ad] | %6
 [Ge][Gd][GB] [FA]2 [Fd] | c>cc cBc |[M:5/8] [Fd]-[Fd]- [Fd]3 |[M:1/8] [Fd] | %10
[M:3/4] e>e ee- e/d/c | [Fd][Ac] [GB] [FA]2 [FA] | B>c d[Ad] [Gc][Fd] | [Ge]4- [Ge][DF]/[EG]/ | %14
 [FA]>[_F=G] [=FA][Fd]- [Fd]/[Gc]/[Ad] | [Ge][Gd] [GB] [FA]2 [Fd] | c>c cc Bc | %17
[M:13/8] [Fd]-[Fd]- [Fd]3 z z z z z z z2 |] %18
V:2
 z3 z2 [D,A,] | [D,D]>[D,D][D,D] [D,A,]>[D,A,][D,C] | [D,D][D,D][D,D] [D,A,]2 [D,D] | %3
 [D,D]>[D,D][D,D] [F,A,D][E,A,C][D,A,D] | [A,,A,]3- [A,,A,]2 [D,A,] | %5
 [D,D]>[D,D][D,D] [D,A,]>[E,A,][F,A,] | [G,B,][G,B,][D,D] [D,D]2 [D,D] | %7
 [A,EG]>[A,EG][A,EG] [A,EG][A,G][A,G] |[M:5/8][K:bass] [D,A,]-[D,A,]- [D,A,]3 |[M:1/8] [D,A,] | %10
[M:3/4][K:treble] [A,CG]>[A,CG] [A,CG][A,CG]- [A,CG]/[A,DG]/[A,EG] | %11
 [D,D][D,D] [D,D] [D,D]2 [D,D] | [G,DG]>[G,CG] [G,B,G][F,A,] [E,A,][D,D] | [A,C]4- [A,C][D,A,] | %14
 [D,D]>[D,D] [D,D][D,A,]- [D,A,]/[E,A,]/[F,A,] | [G,B,][G,B,] [D,D] [D,D]2 [D,D] | %16
 [A,EG]>[A,EG] [A,EG][A,EG] [A,G][A,G] |[M:13/8][K:bass] [D,A,]-[D,A,]- [D,A,]3 z z z z z z z2 |] %18

